X: 11166
T: Duncan Johnstone
R: hornpipe
M: 4/4
K: Adorian
|:e2|A>ee>d e>dd>e|e>AB>d e2 g2|G>dd>B d>BB>d|e>gd>g (3Bcd G>B|
A>e (3eee e>dB>d|e>A (3Bcd e2 g2|e>aa>g e>gB>d|e>Ac>B A2:|
|:(3GAB|A>aa>g a>ee>f|g>ef>d e2 d>B|G>d (3ddd d>G (3Bcd|e>gd>g B>dG>B|
[1 A>a (3aaa a>e (3def|g>e (3fed (3efe d>B|(3AAA A>B e>g (3Bcd|e2 A2 A2:|
[2 A>e (3eee e>d (3Bcd|e>AB>d e2 g2|e>a (3aaa e>gB>d|e>A (3dcB A2||
|:(3agf|e>A (3AAA A>ee>d|B>A (3AAB e2 g>e|d>G (3GGG d>BB>d|e>gd>g (3BcB f>g|
e>A (3AAA A>e (3eee|B>AA>B (3efe g>b|e>aa>g e>g (3Bcd|(3efe A2 A2:|
|:g>f|e>a (3aag a>e (3eeg|e>a (3aag e2 (3def|g>ag>e d>gB>d|e>gd>g B>d (3GAB|
[1 e>aa>g a>ee>f|e>aa>g a2 e>f|g>a (3aag e>gB>d|e>A (3BcB A2:|
[2 (3efe d>e A>ec>e|A>e (3Bcd g2 (3c’ba|g>aa>g e>g (3Bcd|e2 A2 A2||

